templates/main/source/images/chara__on.svg

<?xml version="1.0" encoding="utf-8"?>
<svg width="14px" height="14px" viewBox="0 0 14 14" version="1.1" xmlns:xlink="http://www.w3.org/1999/xlink" xmlns="http://www.w3.org/2000/svg">
  <desc>Created with Lunacy</desc>
  <defs>
    <rect width="14" height="14" id="artboard_1" />
    <clipPath id="clip_1">
      <use xlink:href="#artboard_1" clip-rule="evenodd" />
    </clipPath>
  </defs>
  <g id="Rectangle-5" clip-path="url(#clip_1)">
    <path d="M1.999 0L12.001 0Q12.0992 0 12.1969 0.00962573Q12.2947 0.0192515 12.391 0.0384102Q12.4873 0.057569 12.5813 0.0860763Q12.6753 0.114584 12.766 0.152165Q12.8567 0.189746 12.9433 0.236039Q13.0299 0.282333 13.1116 0.336892Q13.1932 0.391452 13.2692 0.453752Q13.3451 0.516052 13.4145 0.585494Q13.4839 0.654935 13.5462 0.730848Q13.6085 0.806761 13.6631 0.888415Q13.7177 0.970069 13.764 1.05668Q13.8103 1.14329 13.8478 1.23402Q13.8854 1.32474 13.9139 1.41872Q13.9424 1.5127 13.9616 1.60901Q13.9807 1.70533 13.9904 1.80306Q14 1.9008 14 1.999L14 12.001Q14 12.0992 13.9904 12.1969Q13.9807 12.2947 13.9616 12.391Q13.9424 12.4873 13.9139 12.5813Q13.8854 12.6753 13.8478 12.766Q13.8103 12.8567 13.764 12.9433Q13.7177 13.0299 13.6631 13.1116Q13.6085 13.1932 13.5462 13.2692Q13.4839 13.3451 13.4145 13.4145Q13.3451 13.4839 13.2692 13.5462Q13.1932 13.6085 13.1116 13.6631Q13.0299 13.7177 12.9433 13.764Q12.8567 13.8103 12.766 13.8478Q12.6753 13.8854 12.5813 13.9139Q12.4873 13.9424 12.391 13.9616Q12.2947 13.9807 12.1969 13.9904Q12.0992 14 12.001 14L1.999 14Q1.9008 14 1.80306 13.9904Q1.70533 13.9807 1.60901 13.9616Q1.5127 13.9424 1.41872 13.9139Q1.32474 13.8854 1.23402 13.8478Q1.14329 13.8103 1.05668 13.764Q0.970069 13.7177 0.888415 13.6631Q0.806761 13.6085 0.730848 13.5462Q0.654935 13.4839 0.585494 13.4145Q0.516052 13.3451 0.453752 13.2692Q0.391452 13.1932 0.336892 13.1116Q0.282333 13.0299 0.236039 12.9433Q0.189746 12.8567 0.152165 12.766Q0.114584 12.6753 0.0860763 12.5813Q0.057569 12.4873 0.0384102 12.391Q0.0192515 12.2947 0.00962573 12.1969Q0 12.0992 0 12.001L0 1.999Q0 1.9008 0.00962573 1.80306Q0.0192515 1.70533 0.0384102 1.60901Q0.057569 1.5127 0.0860763 1.41872Q0.114584 1.32474 0.152165 1.23402Q0.189746 1.14329 0.236039 1.05668Q0.282333 0.970069 0.336892 0.888415Q0.391452 0.806761 0.453752 0.730848Q0.516052 0.654935 0.585494 0.585494Q0.654935 0.516052 0.730848 0.453752Q0.806761 0.391452 0.888415 0.336892Q0.970069 0.282333 1.05668 0.236039Q1.14329 0.189746 1.23402 0.152165Q1.32474 0.114584 1.41872 0.0860763Q1.5127 0.057569 1.60901 0.0384102Q1.70533 0.0192515 1.80306 0.00962573Q1.9008 0 1.999 0L1.999 0Z" id="Rectangle-5" fill="#8C0014" stroke="none" />
    <g id="Group" transform="translate(4 3)">
      <path d="M2.22433 5.95814L3.67871 5.95814C3.6711 5.5404 3.70817 5.25051 3.78992 5.08845C3.87167 4.9264 4.08175 4.71213 4.42015 4.44564C5.07415 3.93067 5.50095 3.52375 5.70057 3.22485C5.90019 2.92595 6 2.60905 6 2.27414C6 1.66914 5.72814 1.13887 5.18441 0.683322C4.64068 0.227772 3.90875 0 2.98859 0C2.11406 0 1.4078 0.225071 0.869772 0.675219C0.331746 1.12537 0.0418253 1.67274 0 2.31735L1.47148 2.49021C1.57415 2.04006 1.76236 1.70516 2.03612 1.48548C2.30989 1.26581 2.65019 1.15598 3.05703 1.15598C3.47909 1.15598 3.81464 1.26131 4.06369 1.47198C4.31274 1.68265 4.43726 1.93563 4.43726 2.23093C4.43726 2.4434 4.36692 2.63786 4.22624 2.81431C4.13498 2.92595 3.85552 3.16183 3.38783 3.52194C2.92015 3.88206 2.60837 4.20617 2.45247 4.49426C2.29658 4.78236 2.21863 5.14967 2.21863 5.59622C2.21863 5.63943 2.22053 5.76007 2.22433 5.95814ZM2.22433 6.48211L2.22433 8L3.827 8L3.827 6.48211L2.22433 6.48211Z" id="?" fill="#FFFFFF" fill-rule="evenodd" stroke="none" />
    </g>
  </g>
</svg>

<svg width="14" height="14" viewBox="0 0 14 14" xmlns:xlink="http://www.w3.org/1999/xlink" xmlns="http://www.w3.org/2000/svg"><defs><clipPath id="clip_1"><use xlink:href="#artboard_1" clip-rule="evenodd"/></clipPath><path id="artboard_1" d="M0 0h14v14H0z"/></defs><g id="Rectangle-5" clip-path="url(#clip_1)"><path d="M1.999 0h10.002q.098 0 .196.01t.194.028q.096.02.19.048.094.029.185.066.09.038.177.084.087.046.169.1.081.055.157.118.076.062.146.131.069.07.131.146.063.076.117.157.055.082.101.169.046.086.084.177.037.09.066.185.028.094.048.19.019.096.028.194.01.098.01.196v10.002q0 .098-.01.196t-.028.194q-.02.096-.048.19-.029.094-.066.185-.038.09-.084.177-.046.087-.1.169-.056.081-.118.157-.062.076-.131.146-.07.069-.146.131-.076.063-.157.117-.082.055-.169.101-.086.046-.177.084-.09.037-.185.066-.094.028-.19.048-.096.019-.194.028-.098.01-.196.01H1.999q-.098 0-.196-.01t-.194-.028q-.096-.02-.19-.048-.094-.029-.185-.066-.09-.038-.177-.084-.087-.046-.169-.1-.081-.056-.157-.118-.076-.062-.146-.131-.069-.07-.131-.146-.063-.076-.117-.157-.055-.082-.101-.169-.046-.086-.084-.177-.037-.09-.066-.185-.028-.094-.048-.19-.019-.096-.028-.194Q0 12.099 0 12V1.999q0-.098.01-.196t.028-.194q.02-.096.048-.19.029-.094.066-.185.038-.09.084-.177.046-.087.1-.169Q.392.807.455.731.516.655.585.585.655.516.731.454.807.39.888.337.97.282 1.057.236q.086-.046.177-.084.09-.037.185-.066.094-.028.19-.048.096-.019.194-.028Q1.901 0 2 0z" id="Rectangle-5" fill="#8C0014" stroke="none"/><g id="Group" transform="translate(4 3)"><path d="M2.224 5.958H3.68c-.008-.418.03-.707.11-.87.083-.162.293-.376.631-.642.654-.515 1.08-.922 1.28-1.221.2-.3.3-.616.3-.95 0-.606-.272-1.136-.816-1.592C4.641.228 3.91 0 2.99 0 2.114 0 1.408.225.869.675c-.537.45-.827.998-.869 1.642l1.471.173c.103-.45.291-.785.565-1.005.274-.22.614-.329 1.021-.329.422 0 .758.105 1.007.316.249.21.373.464.373.759 0 .212-.07.407-.21.583-.092.112-.371.348-.84.708-.467.36-.779.684-.935.972-.155.288-.233.656-.233 1.102l.005.362zm0 .524V8h1.603V6.482H2.224z" id="?" fill="#FFF" fill-rule="evenodd" stroke="none"/></g></g></svg>
